X:2
T: Zanmen de ling xiu Mao Zedong
N: C0003
O: China,Shaanxi, Nordwesten
S: I, 50]
N: neues Volkslied. Hauefig waehrend der Kulturrevolution gesungen.
N: Cut 11b soll eine Variante davon sein. +++ Noch zuzuordnen!!! +++
R: Xiaodiao. Geming lishi minge]
M: 2/4
L: 1/16
K: F
c4c4 | f2c4B2 | G2c2_E2F2 | G8 |
c4c4 | f2c4B2 | G2c2_E2F2 | G8 |
f2d2f3d | c2f2d2f2 | c4B2G2 | c8 |
G2GGG2c2 | G2F2_E2D2 | C8 |
F2_E4F2 | G8 | c8 |
G4A2G2 | F6A2 | G2F2_E2D2 | C8

@@@ Tune index: 6003
